X:145
T:Pecket's Hornpipe
B:John of the Greeny Cheshire Way
L:1/8
M:3/2
N: John Offord, Reproduced with permission
O:England
R:Triple Hornpipe
Z:Steve Bliven (bliven@massed.net)
%%TUNEURL: http://www.leeds.ac.uk/music/Info/RRTuneBk/gettune/000002f6.html
%%ID:000002f6
K:D
gfed cdec d2 D2 | FGAF E2 e2 c4   | BAGB AGFA d2 F2| GFED A,2 C2 D4 ||
FAFD FAFD C2 E2 | GBGE GBGE  F2 A2| egec dfdB cecA | gfed Adce  d4 |]
